X:1
T:Les Orientales
T:Nourmahal-la-Rousse
T:A Madame Ch. Lamoureux (BRUNET-LAFLEUR) 
T:Les Orientales
T:2. Nourmahal-la-Rousse
T:Marie Jaëll 
T:Victor Hugo 
T:OpenScore (CC0)
T:OpenScore (CC0)
T:OpenScore (CC0)
T:OpenScore (CC0)
T:OpenScore (CC0)
T:OpenScore (CC0)
C:Marie Jaëll
Z:Victor Hugo
Z:OpenScore (CC0)
%%score 1 { ( 2 4 ) | ( 3 5 6 ) }
L:1/8
Q:1/4=114
M:4/4
K:F
V:1 treble nm="Chant\nVoice"
V:2 treble nm="Piano"
V:4 treble 
V:3 bass 
V:5 bass 
V:6 bass 
V:1
"^Moderato" z4!mf! (3F2 E2 D2 | E3 F (3(G2 A2) B2 | B2 A2 (3z2 D2 D2 | _E3 B A2 A2 | %4
w: En- tre deux|rocs d'un noir _ d'é-|bè- ne Vo- yez-|vous ce sombre hal-|
 D4 (3D2 D2 D2 | _E2 E2 (3z2 ^C2 C2 | A2 F2 (3D2 E2 F2 | (3G2 A2 B2 ^c4 | %8
w: \- lier Qui se hé-|ris- se dans la|plaine, Ain- si qu’u- ne|touf- fe de laine|
 (3d2 A2 F2 !>!_E2 !>!=E2- | (3E2!<(! G2 A2 B4!<)! | z8 | z8 |!f! !^!A4- A2 z2 | %13
w: En- tre les cor- nes|_ du bé- lier?|||Là, _|
!p! (3z2 E2"^rit." F2[Q:1/4=108] G2 G2 |[Q:1/4=100] z2 G A B2 A2 | %15
w: dans une om- bre|non fray- é- e,|
"^a tempo"[Q:1/4=114] z2!f! d4 D D | D4 (3^C E D C2 | z2 ^c c d2 d2 | B2 =B B ^c2 c2 | z2 G G F4 | %20
w: Gron- dent le|tigre en- san- glan- té,|La li- on- ne,|mère ef- fray- é- e,|Le cha- cal,|
 z2 _E2 D2 D D | c3 c z2 =B2- | B _B B B !^!B2 !^!G !^!E | !^!^C4 !fermata!z4 | z8 || %25
w: l'hy- è- ne ray-|\- é- e, Et|_ le lé- o- pard ta- che-|té.||
[M:4/4][Q:1/4=177] z12 |!mp! d3 D D2 D D | D2 D2 E2 E2 | A4 D2 z3 | z6 z3 D2 | %30
w: |Là, des mon- stres de|tou- te for- me|ram- pent:|le|
 ^F2 F2 !>!F2 z3/2 F | G4- G2 z3 | G2 G G !>!^F3!<(! c | c2 c2 d3!<)! d || %34
w: ba- si- lic rê-|\- vant, _|L’hip- po- po- tame au|ventre é- nor- me,|
[M:6/4][Q:1/4=177][Q:1/4=114] z6 z2!f! d2 d d | d2 A2 B B c2 c2 d2 | _e2 A2 G2 ^F4 _E E || %37
w: Et le bo-|a, vaste et dif- for- me, Qui|semble un tronc d’ar- bre vi-|
[M:4/4][Q:1/4=104] D4 z2 z!p!"^a tempo" G |[Q:1/4=114] G2 G G B2 G G | G G z G/ G/ B3 A | %40
w: vant. L’or-|fraie aux pau- piè- res ver-|meil- les, Le ser- pent, le|
 G2 F _E D2 C E | G B/ B/ c _e d2 ^c2 | z2!f! d d f2 d2 | B2 B B A2 A2 | D2 D2 D2 B2 | G2 F G A4 | %46
w: sin- ge mé- chant, Sif- flent|comme un es- saim d’a- beil- les;|L’é- lé- phant aux|lar- ges o- reil- les|Cas- se les bam-|bous en mar- chant.|
 z4 A4 | z D D D D2 D D | _E E E E c A ^F A/ A/ | ^G2 z2 z2 z d | f3/2 f/ d2 =B B/ B/ ^G G | %51
w: Là,|vit la sau- va- ge fa-|\- mil- le Qui gla- pit, bour- donne et mu-|git. Le|bois en- tier hurle et four- mil- le.|
 z4 z D (3F _A d ||[M:2/4] f2 e f ||[M:4/4] d d z2 z2 D F | ^G2 d d (f2 e) f | %55
w: Sous cha- que buis-|son un oeil|bril- le, Dans chaque|antre u- ne voix _ ru-|
[Q:1/4=120] g4[Q:1/4=130] z4 |"^long"[Q:1/4=114] !fermata!z4 z2 B2 | !fermata!G4 z4 | %58
w: git.|Eh|bien?|
 z4!mp! B2 G2 | ^c4 F2 G2 | A4 D2 z2 | z4 z2!p! E2 | F2 c2 ^G4 | z4 z!f! D E F | A4 z4 | %65
w: seul et|nu sur la|mous- se,|Dans|ce bois- là|je se- rais|mieux|
 z2 !fermata!z!mp! A2 B c2 |[Q:1/4=104]!<(! d3/2 d/!>(! !fermata!d4!<)! G2!>)! | _d3 G z4 || %68
w: Que de- vant|Nour- ma- hal la|Rous- se,|
[K:D][Q:1/4=80]"^Assez lentement" z4 z2 z!p! F |!<(! E D (3C D E D !>!E- E2- | %70
w: Qui|parle a- vec u- ne voix dou- *|
 E2 ^E2!<)! (3z!<(! F G ^G2-!<)! |!>(! G2 A2!>)! z4 | z2 z!pp! A _B2!>(! (AB) | (=B4 c4)!>)! | %74
w: * ce Et re- gar-|* de|a- vec de _|doux _|
 d4 z4 |[Q:1/4=76] z8 | z8[Q:1/4=72] | z8 |] %78
w: yeux.||||
V:2
"^Moderato" z8 | z8 | z8 | z8 | z8 | z8 | z8 | z8 | z8 | z8 | z8 | z8 | z8 |!pp! z8 | z8 | %15
"^a tempo" z8 | z8 | z8 | z8 | z8 | z8 | z8 | z8 | !fermata!z8 | z8 || %25
[M:6/4]"^( Les  comme avant les  )" z12 | z12 | z12 | z12 | z12 | z12 | z12 | z12 | z12 || %34
[M:6/4]"^Tempo I. ( comme avant les .)" z12 | z12 | z12 ||[M:4/4] z4 z2 z D | %38
"^a tempo" (!>!_E3 !>!_e) (d3 d') |!8va(! (!>!_e'3 !>!_e'') (d''!8va)!d'd)!>!_e | %40
 (dD[I:staff +1]D,)_E,[I:staff -1] (Dd/) z/ (_e_e'/) z/ | %41
!8va(!"_cresc." (d'd''/)!8va)! z/ (_e'_e/) z/ (dD/) z/[I:staff +1] (_E,[I:staff -1]_E/) z/ | %42
[K:bass] z2 [D,D]4 [F,F]2- | [F,F]2 [D,D]4 [F,F]2- | [F,F]2 [G,G]4 [E,E]2- | %45
 [E,E]2 [D,D]4 [^C,^C]2 |!ff! z3/2 (3(E,/4F,/4G,/4) (^G,A,) z3/2 (3(=G,/4A,/4B,/4) (^CD) | %47
 z3/2 (3(E,/4F,/4G,/4) (^G,A,) z3/2 (3(=G,/4A,/4B,/4) (^CD) | %48
 z (A,/4B,/4C/4D/4) (_EG) z[K:treble] (C/4D/4E/4F/4) (^FA) | %49
 z (^G,/4A,/4=B,/4C/4) (.D.F) (=BF/4E/4D/4C/4) (.B,.G,) | %50
 z (^G,/4A,/4=B,/4C/4) (.D.F) (=BF/4E/4D/4C/4) (.B,.G,) | z (D/4E/4F/4G/4) (.^G.A) (!>![^G,D^G]4 || %52
[M:2/4] !>![D^Gd]4) || %53
[M:4/4][K:bass] z (D,/4E,/4F,/4G,/4) (.^G,.A,) z (D,/4E,/4F,/4!courtesy!=G,/4) (.^G,.A,) | %54
[K:treble] (!>![^G,D^G]4 !>![DGd]4) | %55
!ff! z3/2"^accel." (3(F,/4G,/4A,/4) (.B,.^C) (E3/2(3F/4G/4A/4) (.B.^c) | e4"^long" !fermata!z4 | %57
[K:bass] !fermata!z4!p! z3/2 (3(A,/4B,/4C/4) (.^C.E-) | E8 | z8 | %60
 z3/2 (3(F,/4G,/4^G,/4) (.A,.D-) D3/2[K:treble](3(F/4G/4^G/4) (.A.d) | %61
!pp! z[K:bass]!<(! (A,,/4B,,/4C,/4D,/4 ._E,.B,) z (^A,,/4=B,,/4C,/4D,/4 .=E,.=B,) | %62
 z (=B,,/4C,/4D,/4E,/4 .F,!<)!!p!.C) z (D,/4E,/4F,/4G,/4 .^G,.D-) | D[K:treble]^G/4A/4=B/4c/4 d6 | %64
[K:bass]!f! z (D,/4_E,/4^F,/4G,/4) .A,_E- E[K:treble]A/4B/4c/4d/4 _e2- | e2 !fermata!z2 z4 | %66
!f! !^![G,DG]2 !^!!fermata![G,DG]6 |!>(! ([G,_DG]4 [G,^CG]4)!>)! || %68
[K:D]!p! z (!tenuto!f' .e'.d' (3c'd'e' d'2) |!<(! B,2 z2!<)! d(c- cB | %70
!>(! (3^ABc !arpeggio![^EB]2)!>)! (3z!<(! (FG [D^G]2-!<)! | %71
!>(! [DG]2 [DA])!>)! z (3z (fg!>(! !>!^g2- | g2!>)! a2)!pp! ^G2 AG | =G8 | %74
 z2 z (f'"^1""^2""^4" (3e'd'c' d'2) | z2 z (f (3edc d2-) | %76
 (dFED!<(! (3CDE!<)!!>(! !>!!fermata!D2)!>)! | [F,D]8 |] %78
V:3
!p!!>(! (!>![D,,D,]8!>)! | [^C,,^C,]4!>(! (3!>![B,,,B,,]2 [A,,,A,,]2 [G,,,G,,]2!>)! | %2
!p! [F,,,F,,]4!<(! [F,,F,]4 | [G,,G,]4!<)! [A,,A,]4) | %4
!>(! (3([C,C]2 [=B,,=B,]2 [_B,,_B,]2 [A,,A,]4!>)! |!<(! [G,,G,]4!<)!!>(! [A,,A,]2 [G,,G,]2!>)! | %6
!<(! [F,,F,]4!<)!!>(! [B,,B,]2 [A,,A,]2!>)! |!<(! [G,,G,]2 [F,,F,]2!<)!!>(! [E,,E,]4!>)! | %8
!<(! [F,,F,]4 [G,,G,]2 !>![=E,=E]2)!<)! |!>(! (3(!>!.[^C,^C]2 .[B,,B,]2 .[A,,A,]2 [G,,G,]4)!>)! | %10
!<(! (3(.[E,,E,]2 .[^C,,^C,]2 .[=C,,=C,]2 [B,,,B,,]4)!<)! | %11
!f! (3(.[A,,,A,,]2 .[G,,,G,,]2 .[E,,,E,,]2 [^C,,,^C,,]4-) |!>(! [C,,,C,,]8-!>)! | %13
 [C,,,C,,]4!8vb(! (!////-!^C,,,2 ^C,,2 |!>(! !///-!^C,,,4 ^C,,4)!>)! | %15
!f! [D,,,D,,]3!<(! ([_E,,,_E,,]/[=E,,,=E,,]/) [F,,,F,,]3!<)!!f!!<(! ([E,,,E,,]/[F,,,F,,]/!8vb)! | %16
 [G,,,G,,]3)!<)!!f!!<(! ([E,,E,]/[F,,F,]/ [G,,G,]3)!<)!!f!!<(! ([G,,G,]/[A,,A,]/ | %17
 [B,,B,]3)!<)!!f!!<(! ([A,,A,]/[G,,G,]/ [F,,F,]3)!<)!!f!!<(! ([E,,,E,,]/[F,,,F,,]/ | %18
 [G,,,G,,]2)!<)! [^G,,,^G,,]2 [A,,,A,,]3!f!!<(! ([B,,,B,,]/[A,,,A,,]/ | %19
 [^C,,^C,]3)!<)!!f!!<(! ([^B,,,^B,,]/[C,,C,]/ [A,,A,]3)!<)!!f!!<(! ([^G,,^G,]/[A,,A,]/ | %20
 [=C,,=C,]3)!<)!!f!!<(! ([=B,,,=B,,]/[C,,C,]/ [^F,,^F,]3)!<)!!f!!<(! ([^E,,^E,]/[F,,F,]/ | %21
 [^F,,,^F,,]3)!<)!!f!!<(! ([^E,,,^E,,]/[F,,,F,,]/ [G,,,G,,]3)!<)!!f!!<(! ([F,,,F,,]/[G,,,G,,]/ | %22
 [_A,,,_A,,]3)!<)!!f!!<(! ([B,,B,]/[C,C]/ [^C,^C]3)!<)!!f!!<(! ([C,C]/[D,D]/ | %23
 [E,E]3)!<)!!f!!<(! [F,F]/[G,G]/!<)!!>(! !fermata![A,A]4 | A,8!>)! || %25
[M:6/4]!p!!ped! (!tenuto!A,,2 !tenuto!B,,2 !tenuto!A,,2!ped-up!!ped! !tenuto!F,,2 !tenuto!E,,2 !tenuto!F,,2)!ped-up! | %26
!ped! (!tenuto!A,,2 !tenuto!B,,2 !tenuto!A,,2!ped-up!!ped! !tenuto!F,,2 !tenuto!E,,2 !tenuto!F,,2)!ped-up! | %27
!ped! (!tenuto!B,,2 !tenuto!A,,2 !tenuto!B,,2!ped-up!!ped! !tenuto!G,,2 !tenuto!^F,,2 !tenuto!G,,2)!ped-up! | %28
 (!tenuto!E,,2 !tenuto!_E,,2 !tenuto!=E,,2 !tenuto!F,,2 !tenuto!E,,2 !tenuto!F,,2) | %29
 (!tenuto!A,,2 !tenuto!B,,2 !tenuto!^C,2 !tenuto!D,2 !tenuto!E,2 !tenuto!F,2) | %30
 (!tenuto!^F,2 !tenuto!_E,2 !tenuto!D,2 !tenuto!C,2 !tenuto!B,,2 !tenuto!A,,2) | %31
 (!tenuto!G,,2 !tenuto!A,,2 !tenuto!B,,2 !tenuto!^C,2 !tenuto!D,2 !tenuto!G,2) | %32
!<(! (!tenuto!E,2 !tenuto!D,2 !tenuto!^C,2 !tenuto!_E,2 !tenuto!D,2 !tenuto!=C,2) | %33
!f! (!tenuto!_E,,A,,!tenuto!D,,A,,!tenuto!C,,A,, !tenuto!=B,,,A,,!tenuto!_B,,,A,,!tenuto!A,,,A,,)!<)! || %34
[M:6/4]!ff!!ped!!>(! x !tenuto!B,,2!ped-up!!ped! !tenuto!C,2!ped-up!!ped! !tenuto!D,2!ped-up!!ped! !tenuto!B,,2!ped-up! !tenuto!C,2 !tenuto!D,!>)! | %35
!mf! x !tenuto!D2 !tenuto!C2 !tenuto!B,2 !tenuto!A,2 !tenuto!G,2 !tenuto!^F, | %36
 x !>!_E,2 !tenuto!_E2 !tenuto!D2 !tenuto!C2 !tenuto!^F,2 !tenuto!E, || %37
[M:4/4]!>(! B,,,D,A,,,D, _A,,,D,!p!!ped! (!///-!G,,, D,,)!>)!!ped-up! | %38
!ped! (!///-!G,,,2 _E,,2!ped-up!!ped! !///-!G,,,2 D,,2!ped-up! | %39
 !///-!G,,,2 _E,,2 !///-!G,,,3/2 D,,3/2) (!>!G,,,/_E,,/ | %40
 !///-!G,,,3/2 D,,3/2) (G,,,/_E,,/ !///-!G,,, D,,) (!///-!G,,, E,, | %41
 !///-!G,,, D,,) (!///-!G,,, _E,, !///-!G,,, D,,) (!///-!G,,, E,,) | %42
!pp! !///-!^G,,2 D,,2 !///-!A,,2 D,,2 | !///-!^G,,2 D,,2 !///-!A,,2 D,,2 | %44
 !///-!B,,2 D,,2 !///-!E,,2 D,,2 | !///-!B,,2 D,,2 (!///-!A,,2 E,,2) | %46
!ped! (D,,3/2(3E,,/4F,,/4G,,/4) (^G,,A,,)!ped-up!!ped! (F,,3/2(3=G,,/4A,,/4B,,/4) (^C,D,)!ped-up! | %47
 (D,,3/2(3E,,/4F,,/4G,,/4) (^G,,A,,) (F,,3/2(3=G,,/4A,,/4B,,/4) (^C,D,) | %48
 (G,,A,,/4B,,/4C,/4D,/4) (_E,G,) (A,,C,/4D,/4E,/4F,/4) (^F,A,) | %49
!ped! (=B,,^G,,/4A,,/4B,,/4C,/4) (.D,.F,) (=B,F,/4E,/4D,/4C,/4) (.B,,.G,,)!ped-up! | %50
 (D,,^G,,/4A,,/4=B,,/4C,/4) (.D,.F,) (=B,F,/4E,/4D,/4C,/4) (.B,,.G,,) | %51
 (D,,D,/4E,/4F,/4G,/4) (.^G,.A,) z2 (!>![B,,B,]2- ||[M:2/4] [B,,B,]2 !>![B,,,B,,]2) || %53
[M:4/4] (D,,D,,/4E,,/4F,,/4G,,/4) (.^G,,.A,,) (D,,D,,/4E,,/4F,,/4!courtesy!=G,,/4) (.^G,,.A,,) | %54
 z2 (!>![=B,,=B,]4 [=B,,,=B,,]2) | %55
 (E,,3/2(3F,,/4G,,/4A,,/4) (.B,,.^C,) (E,3/2(3F,/4G,/4A,/4) (.B,.^C) | E4"^long" !fermata!z4 | %57
 !fermata!z4 [G,,,G,,]4- | [G,,,G,,]8- | [G,,,G,,]8 | [F,,,F,,]8 | ([G,,,G,,]4 [^G,,,^G,,]4 | %62
 [A,,,A,,]4"^cresc." [=B,,,=B,,]4- | [B,,,B,,]8) | [C,,C,]8- | [C,,C,]2 !fermata!z2 z4 | %66
 !^![B,,,B,,]2 !^!!fermata![=B,,,=B,,]6 | (!arpeggio![_E,,_B,,]4 !arpeggio![=E,,A,,]4) || %68
[K:D] (3(F,,D,A, ^A,4- (3A,^^G,A,) | (D,2- D,>^A, B,)!arpeggio!^G,- G,2- | %70
 [E,G,]2 !arpeggio![^G,D]2 z2 ([^E,B,]2- | [E,B,]2 [F,A,]) z z2[K:treble] ([^EB]2- | %72
 [EB]2 [FA]2)[K:bass] (_B,2 z =B, | E,4 A,,4) | %74
!<(! (3(D,,A,,D, (3F,A,D)!<)!"^1""^2""^4"!>(! !arpeggio![F,^A,D]4!>)! | (3(D,,A,,D, (3F,A,D) ^A,4 | %76
 (D,,A,,D,F, A,2 !arpeggio![F,^A,]2) | !arpeggio![D,,A,,]8 |] %78
V:4
 x8 | x8 | x8 | x8 | x8 | x8 | x8 | x8 | x8 | x8 | x8 | x8 | x8 | x4"^rit." x4 | x8 | x8 | x8 | %17
 x8 | x8 | x8 | x8 | x8 | x8 | x8 | x8 ||[M:6/4] x12 | x12 | x12 | x12 | x12 | x12 | x12 | x12 | %33
 x12 ||[M:6/4] x12 | x12 | x12 ||[M:4/4] x8 | x8 |!8va(! x5!8va)! x3 | x8 | %41
!8va(! x3/2!8va)! x13/2 |[K:bass] x8 | x8 | x8 | x8 | x8 | x8 | x5[K:treble] x3 | x8 | x8 | x8 || %52
[M:2/4] x4 ||[M:4/4][K:bass] x8 |[K:treble] x8 | x8 | x8 |[K:bass] x8 | x8 | x8 | %60
 x11/2[K:treble] x5/2 | x[K:bass] x7 | x8 | x[K:treble] x7 |[K:bass] x5[K:treble] x3 | x8 | x8 | %67
 x8 ||[K:D] x8 | x5 D- D2- | D2 x6 | x6 d2- | d4 (D3 D | D4 C4) | %74
 !arpeggio![A,DF]4 !arpeggio![F^Ad]4 | x4 !arpeggio![DF]4 | x8 | x8 |] %78
V:5
 x8 | x8 | x8 | x8 | x8 | x8 | x8 | x8 | x8 | x8 | x8 | x8 | x8 | x4!8vb(! x4 | x8 | x8!8vb)! | %16
 x8 | x8 | x8 | x8 | x8 | x8 | x8 | x8 | x8 ||[M:6/4] A,,D,,B,,D,,A,,D,, F,,D,,E,,D,,F,,D,, | %26
 A,,D,,B,,D,,A,,D,, F,,D,,E,,D,,F,,D,, | B,,D,,A,,D,,B,,D,, G,,D,,^F,,D,,G,,D,, | %28
 E,,D,,_E,,D,,=E,,D,, F,,D,,E,,D,,F,,D,, | A,,D,,B,,D,,^C,D,, D,D,,E,D,,F,D,, | %30
 ^F,D,,_E,D,,D,D,, C,D,,B,,D,,A,,D,, | G,,D,,A,,D,,B,,D,, ^C,D,,D,D,,G,D,, | %32
 E,D,,D,D,,^C,D,, _E,D,,D,D,,=C,D,, | _E,,2 D,,2 C,,2 =B,,,2 _B,,,2 A,,,2 || %34
[M:6/4] G,,,B,,A,,,C,B,,,D, G,,,B,,A,,,C,B,,,D, | B,,DA,,CG,,B, ^F,,A,_E,,G,D,,^F, | %36
 C,,_E,C,_EB,,D A,,CD,,^F,C,,E, ||[M:4/4] !>!B,,,2 !>!A,,,2 !>!_A,,,2 x2 | x8 | x8 | x8 | x8 | %42
 [^G,,,^G,,]4 [A,,,A,,]4 | [^G,,,^G,,]4 [A,,,A,,]4 | [B,,,B,,]4 [E,,,E,,]4 | %45
 [B,,,B,,]4 [A,,,A,,]4 | [D,,,D,,]4 [F,,,F,,]4 | [D,,,D,,]4 [F,,,F,,]4 | [G,,,G,,]4 [A,,,A,,]4 | %49
 [=B,,,=B,,]4 x4 | [D,,,D,,]4 x4 | [D,,,D,,]4 x4 ||[M:2/4] x4 ||[M:4/4] [D,,,D,,]4 x4 | x8 | %55
 [E,,,E,,]4 x4 | x8 | x8 | x8 | x8 | x8 | x8 | x8 | x8 | x8 | x8 | x8 | x8 || %68
[K:D] (3:2:1F,,3- [F,,D,]6 | [G,,D,]4 x E,- E,2- | x8 | x6[K:treble] x2 | %72
 x4[K:bass] !arpeggio!^E,2 F,!arpeggio!=F, | x8 | x8 | x8 | x8 | x8 |] %78
V:6
 x8 | x8 | x8 | x8 | x8 | x8 | x8 | x8 | x8 | x8 | x8 | x8 | x8 | x4!8vb(! x4 | x8 | x8!8vb)! | %16
 x8 | x8 | x8 | x8 | x8 | x8 | x8 | x8 | x8 ||[M:6/4] x12 | x12 | x12 | x12 | x12 | x12 | x12 | %32
 x12 | x12 ||[M:6/4] x12 | x12 | x12 ||[M:4/4] x8 | x8 | x8 | x8 | x8 | x8 | x8 | x8 | x8 | x8 | %47
 x8 | x8 | x8 | x8 | x8 ||[M:2/4] x4 ||[M:4/4] x8 | x8 | x8 | x8 | x8 | x8 | x8 | x8 | x8 | x8 | %63
 x8 | x8 | x8 | x8 | x8 ||[K:D] x2/3 (3:2:1D,- x20/3 | x8 | x8 | x6[K:treble] x2 | x4[K:bass] x4 | %73
 x8 | x8 | x8 | x8 | x8 |] %78

